( Made using CamBam - http://www.cambam.co.uk )
( psu_bipolar_PCB 12/4/2014 7:07:31 AM )
( T1 : 0.0039 )
( T3 : 0.031 )
( T4 : 0.04 )
( T5 : 0.056 )
G20 G90 G64 G40
G0 Z0.125
( T5 : 0.056 )
T5 M6
( Drill .056 )
G17
M3 S1000
G0 X5.1719 Y1.3161
G98
G81 X5.1719 Y1.3161 Z-0.075 R0.125 F20.0
G81 X5.1678 Y1.1198 Z-0.075
G81 X5.1699 Y0.9194 Z-0.075
G81 Y0.717 Z-0.075
G81 X5.5033 Y-0.2079 Z-0.075
G81 X5.5212 Y2.4099 Z-0.075
G81 X0.1736 Y2.3607 Z-0.075
G81 X0.1602 Y-0.1632 Z-0.075
G80
( Drill .04 )
G0 Z0.125
( T4 : 0.04 )
T4 M6
M3 S1000
G0 X0.2683 Y1.9156
G98
G81 X0.2683 Y1.9156 Z-0.075 R0.125 F20.0
G81 X0.1664 Y1.9171 Z-0.075
G81 X0.0661 Y1.9159 Z-0.075
G81 X0.7762 Y1.6571 Z-0.075
G81 X1.3784 Y1.9156 Z-0.075
G81 X1.7737 Z-0.075
G81 Y1.7149 Z-0.075
G81 X1.3753 Y1.3165 Z-0.075
G81 Y0.9211 Z-0.075
G81 X0.9801 Y0.7187 Z-0.075
G81 X0.7775 Y0.721 Z-0.075
G81 X0.8264 Y0.9166 Z-0.075
G81 X0.9283 Y0.9196 Z-0.075
G81 X0.7797 Y0.3581 Z-0.075
G81 X0.8228 Y0.1782 Z-0.075
G81 X0.9228 Z-0.075
G81 X1.0228 Z-0.075
G81 X1.1228 Z-0.075
G81 Y0.0782 Z-0.075
G81 X1.0228 Z-0.075
G81 X0.9228 Z-0.075
G81 X0.8228 Z-0.075
G81 X0.7228 Z-0.075
G81 X0.6228 Z-0.075
G81 Y0.1782 Z-0.075
G81 X0.7228 Z-0.075
G81 X1.3763 Y0.318 Z-0.075
G81 X1.7748 Z-0.075
G81 Y0.5206 Z-0.075
G81 X2.672 Y0.3202 Z-0.075
G81 X2.7745 Y0.3158 Z-0.075
G81 X2.8724 Y0.3202 Z-0.075
G81 X3.9122 Y0.3176 Z-0.075
G81 X3.9147 Y0.5931 Z-0.075
G81 X4.6681 Z-0.075
G81 X4.6698 Y0.319 Z-0.075
G81 X5.3706 Y0.1186 Z-0.075
G81 X5.5697 Y0.1158 Z-0.075
G81 X5.5683 Y0.5181 Z-0.075
G81 X5.3706 Y0.5208 Z-0.075
G81 X5.3702 Y1.5185 Z-0.075
G81 X5.5706 Z-0.075
G81 Z-0.075
G81 Y1.9111 Z-0.075
G81 X5.3662 Y1.9172 Z-0.075
G81 X4.672 Y1.9192 Z-0.075
G81 X4.6732 Y1.6402 Z-0.075
G81 X3.9102 Z-0.075
G81 X3.913 Y1.9131 Z-0.075
G81 X2.875 Y1.917 Z-0.075
G81 X2.7747 Y1.9185 Z-0.075
G81 X2.6743 Z-0.075
G81 X0.317 Y1.1188 Z-0.075
G81 X0.1178 Z-0.075
G80
( Drill .031 )
G0 Z0.125
( T3 : 0.031 )
T3 M6
M3 S1000
G0 X0.8233 Y1.2678
G98
G81 X0.8233 Y1.2678 Z-0.075 R0.125 F20.0
G81 X0.9298 Z-0.075
G81 X1.0241 Y1.2663 Z-0.075
G81 X0.9267 Y1.3667 Z-0.075
G81 X0.9784 Y1.5142 Z-0.075
G81 X0.9754 Y1.7134 Z-0.075
G81 X1.1761 Y1.6556 Z-0.075
G81 Y1.5568 Z-0.075
G81 X1.5745 Y1.4564 Z-0.075
G81 X1.576 Y1.3591 Z-0.075
G81 X1.7737 Y1.3576 Z-0.075
G81 Y1.4594 Z-0.075
G81 X1.9764 Y1.4547 Z-0.075
G81 X1.9733 Y1.3559 Z-0.075
G81 X1.9748 Y1.254 Z-0.075
G81 X2.0782 Y1.3574 Z-0.075
G81 X1.9764 Y1.7193 Z-0.075
G81 X1.9718 Y1.917 Z-0.075
G81 X1.573 Y1.9156 Z-0.075
G81 X1.5775 Y1.7149 Z-0.075
G81 X1.9764 Y0.9575 Z-0.075
G81 X1.9748 Y0.8571 Z-0.075
G81 X2.0706 Y0.8587 Z-0.075
G81 X1.9774 Y0.7588 Z-0.075
G81 X1.7748 Y0.7566 Z-0.075
G81 X1.7767 Y0.8558 Z-0.075
G81 X1.573 Y0.8588 Z-0.075
G81 X1.5789 Y0.7588 Z-0.075
G81 X1.5767 Y0.5206 Z-0.075
G81 Y0.318 Z-0.075
G81 X1.9708 Y0.3158 Z-0.075
G81 X1.9774 Y0.5206 Z-0.075
G81 X1.176 Y0.5184 Z-0.075
G81 X0.9778 Z-0.075
G81 X1.1782 Y0.761 Z-0.075
G81 X1.1761 Y0.8573 Z-0.075
G81 X0.9222 Y1.1173 Z-0.075
G81 X0.8233 Y1.1188 Z-0.075
G81 X0.5459 Y0.6586 Z-0.075
G81 X0.5481 Y0.5562 Z-0.075
G81 X0.3166 Y0.5206 Z-0.075
G81 X0.1185 Y0.5184 Z-0.075
G81 X0.1193 Y0.9166 Z-0.075
G81 X0.317 Y0.9151 Z-0.075
G81 X0.3155 Y1.3195 Z-0.075
G81 X0.1178 Y1.315 Z-0.075
G81 X3.573 Y1.3161 Z-0.075
G81 Y1.5185 Z-0.075
G81 Y0.9174 Z-0.075
G81 Y0.719 Z-0.075
G80
( Engrave1 )
G0 Z0.125
( T1 : 0.0039 )
T1 M6
M3 S1000
G0 X5.6675 Y2.2543
G0 Z0.055
G1 F20.0 Z-0.01
G1 F40.0 X5.6603 Y-0.0872
G0 Z0.125
G0 X5.7107 Y0.0033
G0 Z0.055
G1 F20.0 Z-0.01
G1 F40.0 X-0.0606 Y0.0102
G0 Z0.125
G0 X0.0106 Y-0.03
G0 Z0.055
G1 F20.0 Z-0.01
G1 F40.0 X0.0178 Y2.2758
G1 X0.0106 Y1.8103
G1 X0.1037 Y1.8175
G1 X0.118 Y2.0108
G1 X0.6694 Y2.018
G1 X0.6766 Y1.617
G1 X0.8842
G1 X0.8699 Y0.6217
G1 X0.2183
G1 X0.2111 Y0.414
G1 X0.8699
G1 X0.8745 Y0.2231
G1 X0.7824 Y0.2213
G1 X0.7896 Y-0.0118
G0 Z0.125
G0 X0.6766 Y-0.0156
G0 Z0.055
G1 F20.0 Z-0.01
G1 F40.0 Y0.4355
G0 Z0.125
G0 X0.8842 Y0.815
G0 Z0.055
G1 F20.0 Z-0.01
G1 F40.0 X0.2111
G1 X0.2183 Y2.0251
G0 Z0.125
G0 X-0.0397 Y2.2042
G0 Z0.055
G1 F20.0 Z-0.01
G1 F40.0 X5.6967 Y2.2112
G0 Z0.125
G0 X5.6747 Y1.8175
G0 Z0.055
G1 F20.0 Z-0.01
G1 F40.0 X3.6625
G1 X3.6697 Y1.4165
G1 X1.4714
G1 Y1.6098
G1 X0.8627
G0 Z0.125
G0 X0.6551 Y2.0108
G0 Z0.055
G1 F20.0 Z-0.01
G1 F40.0 X2.6242
G1 Y1.8103
G1 X2.7245
G1 Y2.018
G1 X2.9178 Y2.0108
G1 Y1.4022
G0 Z0.125
G0 X2.7173 Y0.8359
G0 Z0.055
G1 F20.0 Z-0.01
G1 F40.0 X2.7245 Y0.2151
G0 Z0.125
G0 X2.9178 Y-0.03
G0 Z0.055
G1 F20.0 Z-0.01
G1 F40.0 Y0.4212
G1 X2.8176 Y0.414
G1 Y0.2207
G1 X2.6171 Y0.2135
G1 Y0.414
G1 X1.4714
G1 X1.4785 Y0.8222
G0 Z0.125
G0 X1.679 Y0.8293
G0 Z0.055
G1 F20.0 Z-0.01
G1 F40.0 Y0.3997
G0 Z0.125
G0 X1.0776 Y-0.0371
G0 Z0.055
G1 F20.0 Z-0.01
G1 F40.0 X1.0704 Y0.815
G1 X3.6697 Y0.8222
G1 Y0.4212
G1 X5.6675 Y0.414
G0 Z0.125
G0 X5.467 Y0.3997
G0 Z0.055
G1 F20.0 Z-0.01
G1 F40.0 Y1.6241
G1 X5.2665 Y1.617
G1 Y1.216
G1 X5.066
G1 Y1.8175
G0 Z0.125
G0 X5.0732 Y1.2231
G0 Z0.055
G1 F20.0 Z-0.01
G1 F40.0 Y1.0083
G1 X5.2665 Y1.0226
G1 Y0.3997
G0 Z0.125
G0 X2.8247 Y2.018
G0 Z0.055
G1 F20.0 Z-0.01
G1 F40.0 X2.8176 Y1.617
G1 X2.524 Y1.6027
G1 X2.5168 Y1.8175
G1 X1.4714
G1 X1.4642 Y1.617
G1 X1.4656 Y1.6069
G0 Z0.125
G0 X1.6719 Y1.4165
G0 Z0.055
G1 F20.0 Z-0.01
G1 F40.0 Y1.8175
G0 Z0.125
G0 X0.8914 Y1.0155
G0 Z0.055
G1 F20.0 Z-0.01
G1 F40.0 X0.2111
G0 Z0.125
M5
M30
